_inc/systems/logos/snes-msu1.svg

<?xml version="1.0" encoding="utf-8"?>
<svg viewBox="0 0 264 95" xmlns="http://www.w3.org/2000/svg">
  <path style="fill-opacity: 1; fill-rule: evenodd; stroke: rgb(0, 0, 0); stroke-width: 0; stroke-miterlimit: 4; stroke-opacity: 1; stroke-dasharray: none; fill: rgb(255, 255, 255);" d="M 61.875 0 L 0 61.957 L 16.5 61.957 L 57.75 20.652 L 57.75 61.957 L 66 61.957 L 107.25 20.652 L 107.25 61.957 L 119.625 61.957 L 119.625 0 L 111.375 0 L 70.125 41.304 L 70.125 0 L 61.875 0 Z M 142.313 0 C 132.062 0 123.75 8.323 123.75 18.587 C 123.75 28.851 132.062 37.174 142.313 37.174 L 158.813 37.174 C 162.228 37.174 165 39.95 165 43.37 C 165 46.79 162.228 49.565 158.813 49.565 L 123.75 49.565 L 123.75 61.957 L 158.813 61.957 C 169.063 61.957 177.375 53.634 177.375 43.37 C 177.375 33.106 169.063 24.783 158.813 24.783 L 142.313 24.783 C 138.897 24.783 136.125 22.007 136.125 18.587 C 136.125 15.167 138.897 12.391 142.313 12.391 L 177.375 12.391 L 177.375 0 L 142.313 0 Z M 181.5 0 L 181.5 43.37 C 181.5 53.634 189.812 61.957 200.063 61.957 L 216.563 61.957 C 226.813 61.957 235.125 53.634 235.125 43.37 L 235.125 0 L 222.75 0 L 222.75 43.37 C 222.75 46.79 219.978 49.565 216.563 49.565 L 200.063 49.565 C 196.647 49.565 193.875 46.79 193.875 43.37 L 193.875 0 L 181.5 0 Z M 255.75 0 L 239.25 16.522 L 239.25 24.783 L 251.625 24.783 L 251.625 61.957 L 264 61.957 L 264 0 L 255.75 0 Z" id="path3758"/>
  <path style="fill-opacity: 1; stroke: rgb(0, 0, 0); stroke-width: 0; stroke-linecap: butt; stroke-linejoin: miter; stroke-miterlimit: 4; stroke-opacity: 1; stroke-dasharray: none; fill: rgb(255, 255, 255);" d="M 0 66.087 L 0 74.348 L 264 74.348 L 264 66.087 Z" id="path3798"/>
  <path d="M 17.115 78.222 L 12.041 78.222 L 9.001 91.2 L 5.903 78.222 L 0.767 78.222 L 0.767 94.566 L 4.038 94.566 L 4.038 80.704 L 7.165 94.566 L 10.634 94.566 L 13.843 80.704 L 13.843 94.566 L 17.115 94.566 L 17.115 78.222" id="path3806" style="fill: rgb(255, 255, 255);"/>
  <path d="M 32.934 78.222 L 20.518 78.222 L 20.518 94.566 L 33.334 94.566 L 33.334 91.675 L 23.958 91.675 L 23.958 87.441 L 32.216 87.441 L 32.216 84.55 L 23.958 84.55 L 23.958 81.114 L 32.934 81.114 L 32.934 78.222" id="path3808" style="fill: rgb(255, 255, 255);"/>
  <path d="M 36.197 94.566 L 43.511 94.566 C 45.375 94.566 47.009 93.951 48.126 92.86 C 49.677 91.291 50.535 88.875 50.535 86.053 C 50.535 81.093 48.015 78.222 43.655 78.222 L 36.197 78.222 L 36.197 94.566 M 39.641 81.023 L 43.024 81.023 C 44.171 81.023 45.033 81.32 45.635 81.886 C 46.493 82.729 46.951 84.212 46.951 86.144 C 46.951 89.696 45.519 91.766 43.082 91.766 L 39.641 91.766 L 39.641 81.023" id="path3810" style="fill: rgb(255, 255, 255);"/>
  <path d="M 56.409 78.222 L 52.883 78.222 L 52.883 94.566 L 56.409 94.566 L 56.409 78.222" id="path3812" style="fill: rgb(255, 255, 255);"/>
  <path d="M 63.306 91.2 L 69.531 91.2 L 70.62 94.566 L 74.465 94.566 L 68.5 78.222 L 64.424 78.222 L 58.402 94.566 L 62.131 94.566 L 63.306 91.2 M 66.433 81.841 L 68.558 88.399 L 64.255 88.399 L 66.433 81.841" id="path3814" style="fill: rgb(255, 255, 255);"/>
  <path d="M 95.663 78.222 L 83.247 78.222 L 83.247 94.566 L 96.067 94.566 L 96.067 91.675 L 86.687 91.675 L 86.687 87.441 L 94.949 87.441 L 94.949 84.55 L 86.687 84.55 L 86.687 81.114 L 95.663 81.114 L 95.663 78.222" id="path3816" style="fill: rgb(255, 255, 255);"/>
  <path d="M 109.255 89.696 L 102.486 78.222 L 98.785 78.222 L 98.785 94.566 L 102.057 94.566 L 102.057 82.844 L 109.024 94.566 L 112.522 94.566 L 112.522 78.222 L 109.255 78.222 L 109.255 89.696" id="path3818" style="fill: rgb(255, 255, 255);"/>
  <path d="M 125.912 87.214 L 125.912 94.566 L 129.438 94.566 L 129.438 78.222 L 125.912 78.222 L 125.912 84.414 L 119.316 84.414 L 119.316 78.222 L 115.785 78.222 L 115.785 94.566 L 119.316 94.566 L 119.316 87.214 L 125.912 87.214" id="path3820" style="fill: rgb(255, 255, 255);"/>
  <path d="M 136.455 91.2 L 142.68 91.2 L 143.769 94.566 L 147.613 94.566 L 141.648 78.222 L 137.577 78.222 L 131.554 94.566 L 135.279 94.566 L 136.455 91.2 M 139.582 81.841 L 141.706 88.399 L 137.404 88.399 L 139.582 81.841" id="path3822" style="fill: rgb(255, 255, 255);"/>
  <path d="M 160.165 89.696 L 153.401 78.222 L 149.7 78.222 L 149.7 94.566 L 152.967 94.566 L 152.967 82.844 L 159.939 94.566 L 163.437 94.566 L 163.437 78.222 L 160.165 78.222 L 160.165 89.696" id="path3824" style="fill: rgb(255, 255, 255);"/>
  <path d="M 181.125 83.571 C 180.951 82.274 180.696 81.592 180.065 80.68 C 178.773 78.838 176.567 77.788 173.898 77.788 C 169.08 77.788 166.068 81.114 166.068 86.442 C 166.068 91.746 169.022 95 173.811 95 C 176.047 95 177.94 94.273 179.231 92.881 C 180.209 91.836 180.667 90.903 181.125 88.965 L 177.598 88.965 C 177.338 89.878 177.169 90.287 176.793 90.766 C 176.105 91.609 175.102 92.043 173.869 92.043 C 171.233 92.043 169.653 89.944 169.653 86.463 C 169.653 82.865 171.258 80.75 173.984 80.75 C 175.16 80.75 176.162 81.159 176.765 81.841 C 177.14 82.319 177.338 82.683 177.598 83.571 L 181.125 83.571" id="path3826" style="fill: rgb(255, 255, 255);"/>
  <path d="M 196.202 78.222 L 183.785 78.222 L 183.785 94.566 L 196.606 94.566 L 196.606 91.675 L 187.226 91.675 L 187.226 87.441 L 195.488 87.441 L 195.488 84.55 L 187.226 84.55 L 187.226 81.114 L 196.202 81.114 L 196.202 78.222" id="path3828" style="fill: rgb(255, 255, 255);"/>
  <path d="M 215.672 78.222 L 210.594 78.222 L 207.554 91.2 L 204.46 78.222 L 199.324 78.222 L 199.324 94.566 L 202.595 94.566 L 202.595 80.704 L 205.722 94.566 L 209.191 94.566 L 212.4 80.704 L 212.4 94.566 L 215.672 94.566 L 215.672 78.222" id="path3830" style="fill: rgb(255, 255, 255);"/>
  <path d="M 231.491 78.222 L 219.071 78.222 L 219.071 94.566 L 231.891 94.566 L 231.891 91.675 L 222.515 91.675 L 222.515 87.441 L 230.773 87.441 L 230.773 84.55 L 222.515 84.55 L 222.515 81.114 L 231.491 81.114 L 231.491 78.222" id="path3832" style="fill: rgb(255, 255, 255);"/>
  <path d="M 245.079 89.696 L 238.309 78.222 L 234.614 78.222 L 234.614 94.566 L 237.881 94.566 L 237.881 82.844 L 244.848 94.566 L 248.35 94.566 L 248.35 78.222 L 245.079 78.222 L 245.079 89.696" id="path3834" style="fill: rgb(255, 255, 255);"/>
  <path d="M 258.897 81.114 L 264 81.114 L 264 78.222 L 250.264 78.222 L 250.264 81.114 L 255.366 81.114 L 255.366 94.566 L 258.897 94.566 L 258.897 81.114" id="path3836" style="fill: rgb(255, 255, 255);"/>
</svg>

<svg xmlns="http://www.w3.org/2000/svg" viewBox="0 0 264 95"><path d="M61.88 0 0 61.96h16.5l41.25-41.3v41.3H66l41.25-41.3v41.3h12.38V0h-8.25L70.13 41.3V0zm80.43 0a18.6 18.6 0 0 0-18.56 18.59 18.6 18.6 0 0 0 18.56 18.58h16.5a6.2 6.2 0 0 1 0 12.4h-35.06v12.39h35.06a18.6 18.6 0 0 0 18.56-18.59 18.6 18.6 0 0 0-18.56-18.59h-16.5a6.2 6.2 0 0 1 0-12.39h35.07V0zm39.19 0v43.37a18.6 18.6 0 0 0 18.56 18.59h16.5a18.6 18.6 0 0 0 18.56-18.59V0h-12.37v43.37a6.2 6.2 0 0 1-6.19 6.2h-16.5a6.2 6.2 0 0 1-6.19-6.2V0zm74.25 0-16.5 16.52v8.26h12.38v37.18H264V0z" style="fill-opacity:1;fill-rule:evenodd;stroke:#000;stroke-width:0;stroke-miterlimit:4;stroke-opacity:1;stroke-dasharray:none;fill:#fff"/><path d="M0 66.09v8.26h264v-8.26Z" style="fill-opacity:1;stroke:#000;stroke-width:0;stroke-linecap:butt;stroke-linejoin:miter;stroke-miterlimit:4;stroke-opacity:1;stroke-dasharray:none;fill:#fff"/><path d="M17.11 78.22h-5.07L9 91.2 5.9 78.22H.77v16.35h3.27V80.7l3.13 13.87h3.46l3.21-13.87v13.87h3.27zm15.82 0H20.52v16.35h12.81v-2.9h-9.37v-4.23h8.26v-2.89h-8.26v-3.44h8.97zm3.27 16.35h7.31c1.87 0 3.5-.62 4.62-1.71 1.55-1.57 2.4-3.98 2.4-6.8 0-4.97-2.52-7.84-6.87-7.84H36.2zm3.44-13.55h3.38q1.72 0 2.61.87c.86.84 1.32 2.32 1.32 4.25 0 3.56-1.43 5.63-3.87 5.63h-3.44zm16.76-2.8h-3.52v16.35h3.53zm6.9 12.98h6.23l1.09 3.37h3.84L68.5 78.22h-4.08L58.4 94.57h3.73zm3.12-9.36 2.13 6.56h-4.3zm29.24-3.62H83.25v16.35h12.82v-2.9h-9.38v-4.23h8.26v-2.89h-8.26v-3.44h8.97zm13.6 11.48-6.77-11.48h-3.7v16.35h3.27V82.84l6.96 11.73h3.5V78.22h-3.27zm16.65-2.49v7.36h3.53V78.22h-3.53v6.2h-6.6v-6.2h-3.53v16.35h3.54V87.2zm10.55 3.99h6.22l1.09 3.37h3.84l-5.96-16.35h-4.07l-6.03 16.35h3.73zm3.12-9.36 2.13 6.56h-4.3zm20.59 7.86-6.77-11.48h-3.7v16.35h3.27V82.84l6.97 11.73h3.5V78.22h-3.28zm20.96-6.13a5.7 5.7 0 0 0-1.06-2.89c-1.3-1.84-3.5-2.9-6.17-2.9-4.82 0-7.83 3.33-7.83 8.66 0 5.3 2.95 8.56 7.74 8.56 2.24 0 4.13-.73 5.42-2.12.98-1.04 1.44-1.98 1.9-3.91h-3.53a5 5 0 0 1-.8 1.8 3.6 3.6 0 0 1-2.93 1.27c-2.64 0-4.22-2.1-4.22-5.58 0-3.6 1.6-5.71 4.33-5.71 1.18 0 2.18.4 2.78 1.1.38.47.58.83.84 1.72zm15.07-5.35h-12.4v16.35h12.82v-2.9h-9.38v-4.23h8.26v-2.89h-8.26v-3.44h8.97zm19.47 0h-5.08l-3.04 12.98-3.09-12.98h-5.14v16.35h3.28V80.7l3.12 13.87h3.47l3.21-13.87v13.87h3.27zm15.83 0h-12.43v16.35h12.82v-2.9h-9.37v-4.23h8.25v-2.89h-8.26v-3.44h8.98zm13.58 11.48-6.77-11.48h-3.7v16.35h3.27V82.84l6.97 11.73h3.5V78.22h-3.27zm13.82-8.59h5.1v-2.89h-13.74v2.9h5.1v13.45h3.54z" style="fill:#fff"/></svg>
